dist/svg/object-based/camera_32.svg

<svg xmlns="http://www.w3.org/2000/svg" viewBox="0 0 32 32"><path d="M11 7V5H5v2H1v20h30V7H11zm18 18H3V9h26v16z"/><path d="M21 23.5c3.592 0 6.5-2.908 6.5-6.5s-2.908-6.5-6.5-6.5c-3.587 0-6.5 2.908-6.5 6.5s2.913 6.5 6.5 6.5zm0-12c3.033 0 5.5 2.467 5.5 5.5s-2.467 5.5-5.5 5.5-5.5-2.467-5.5-5.5 2.467-5.5 5.5-5.5z"/><path d="M21 20.5c1.934 0 3.5-1.566 3.5-3.5s-1.566-3.5-3.5-3.5c-1.932 0-3.5 1.566-3.5 3.5s1.568 3.5 3.5 3.5zm0-4.5c.552 0 1 .447 1 1s-.448 1-1 1-1-.447-1-1 .448-1 1-1z"/></svg>

<?xml version="1.0" encoding="iso-8859-1"?>
<!-- Generator: Adobe Illustrator 20.0.0, SVG Export Plug-In . SVG Version: 6.00 Build 0)  -->
<svg version="1.1" id="Layer_1" xmlns="http://www.w3.org/2000/svg" xmlns:xlink="http://www.w3.org/1999/xlink" x="0px" y="0px"
	 viewBox="0 0 32 32" style="enable-background:new 0 0 32 32;" xml:space="preserve">
<g>
	<path d="M11,7V5H5v2H1v20h30V7H11z M29,25H3V9h26V25z"/>
	<path d="M21,23.5c3.592,0,6.5-2.908,6.5-6.5s-2.908-6.5-6.5-6.5c-3.587,0-6.5,2.908-6.5,6.5S17.413,23.5,21,23.5z M21,11.5
		c3.033,0,5.5,2.467,5.5,5.5s-2.467,5.5-5.5,5.5c-3.033,0-5.5-2.467-5.5-5.5S17.967,11.5,21,11.5z"/>
	<path d="M21,20.5c1.934,0,3.5-1.566,3.5-3.5s-1.566-3.5-3.5-3.5c-1.932,0-3.5,1.566-3.5,3.5S19.068,20.5,21,20.5z M21,16
		c0.552,0,1,0.447,1,1s-0.448,1-1,1c-0.552,0-1-0.447-1-1S20.448,16,21,16z"/>
</g>
</svg>
